_includes/icons/color-low-priority.svg

<svg fill="#666" height="50" viewBox="0 0 48 48" width="50" xmlns="http://www.w3.org/2000/svg"><path d="m21.199219 44.800781-18-18c-1.597656-1.601562-1.597656-4.101562 0-5.699218l18-18c1.601562-1.601563 4.101562-1.601563 5.699219 0l18 18c1.601562 1.597656 1.601562 4.097656 0 5.699218l-18 18c-1.597657 1.597657-4.199219 1.597657-5.699219 0z" fill="#4caf50"/><g fill="#ffeb3b"><path d="m24 33.398438-7-8.398438h14z"/><path d="m22 14.800781h4v12.300782h-4z"/></g></svg>

<svg xmlns="http://www.w3.org/2000/svg" viewBox="0 0 48 48" width="50" height="50" fill="#666"><path d="M 21.199219 44.800781 L 3.199219 26.800781 C 1.601563 25.199219 1.601563 22.699219 3.199219 21.101563 L 21.199219 3.101563 C 22.800781 1.5 25.300781 1.5 26.898438 3.101563 L 44.898438 21.101563 C 46.5 22.699219 46.5 25.199219 44.898438 26.800781 L 26.898438 44.800781 C 25.300781 46.398438 22.699219 46.398438 21.199219 44.800781 Z" fill="#4caf50"/><path d="M 24 33.398438 L 17 25 L 31 25 Z" fill="#ffeb3b"/><path d="M 22 14.800781 L 26 14.800781 L 26 27.101563 L 22 27.101563 Z" fill="#ffeb3b"/></svg>
